src/packages/admin-ui/src/assets/graphweaver-logo.svg

<svg width="52" height="26" viewBox="0 0 52 26" fill="none" xmlns="http://www.w3.org/2000/svg">
<path fill-rule="evenodd" clip-rule="evenodd" d="M2.5 0C1.11929 0 0 1.11929 0 2.5C0 3.88071 1.11929 5 2.5 5H6.55719C7.9379 5 9.05719 3.88071 9.05719 2.5C9.05719 1.11929 7.9379 0 6.55719 0H2.5ZM27.5 0C28.8807 0 30 1.11929 30 2.5C30 3.88071 28.8807 5 27.5 5H23.4428C22.0621 5 20.9428 3.88071 20.9428 2.5C20.9428 1.11929 22.0621 0 23.4428 0H27.5ZM52 2.5C52 1.11929 50.8807 0 49.5 0H45.4428C44.0621 0 42.9428 1.11929 42.9428 2.5C42.9428 3.88071 44.0621 5 45.4428 5H49.5C50.8807 5 52 3.88071 52 2.5ZM13.5 21C12.1193 21 11 22.1193 11 23.5C11 24.8807 12.1193 26 13.5 26H17.5C18.8807 26 20 24.8807 20 23.5C20 22.1193 18.8807 21 17.5 21H13.5ZM30.999 23.5C30.999 22.1193 32.1183 21 33.499 21H37.499C38.8797 21 39.999 22.1193 39.999 23.5C39.999 24.8807 38.8797 26 37.499 26H33.499C32.1183 26 30.999 24.8807 30.999 23.5ZM2.5 7C1.11929 7 0 8.11929 0 9.5C0 10.8807 1.11929 12 2.5 12H11.2906C12.6713 12 13.7906 10.8807 13.7906 9.5C13.7906 8.11929 12.6713 7 11.2906 7H2.5ZM36 9.5C36 10.8807 34.8807 12 33.5 12H18.5C17.1193 12 16 10.8807 16 9.5C16 8.11929 17.1193 7 18.5 7H33.5C34.8807 7 36 8.11929 36 9.5ZM49.5 7C50.8807 7 52 8.11929 52 9.5C52 10.8807 50.8807 12 49.5 12H40.7094C39.3287 12 38.2094 10.8807 38.2094 9.5C38.2094 8.11929 39.3287 7 40.7094 7H49.5ZM4 16.5C4 15.1193 5.11929 14 6.5 14H21.5C22.8807 14 24 15.1193 24 16.5C24 17.8807 22.8807 19 21.5 19H6.5C5.11929 19 4 17.8807 4 16.5ZM30.5 14C29.1193 14 28 15.1193 28 16.5C28 17.8807 29.1193 19 30.5 19H45.5C46.8807 19 48 17.8807 48 16.5C48 15.1193 46.8807 14 45.5 14H30.5Z" fill="#EDEAF4"/>
</svg>

<?xml version="1.0" encoding="UTF-8"?>
<svg fill="none" viewBox="0 0 52 26" xmlns="http://www.w3.org/2000/svg">
<path d="m2.5 0c-1.3807 0-2.5 1.1193-2.5 2.5s1.1193 2.5 2.5 2.5h4.0572c1.3807 0 2.5-1.1193 2.5-2.5s-1.1193-2.5-2.5-2.5h-4.0572zm25 0c1.3807 0 2.5 1.1193 2.5 2.5s-1.1193 2.5-2.5 2.5h-4.0572c-1.3807 0-2.5-1.1193-2.5-2.5s1.1193-2.5 2.5-2.5h4.0572zm24.5 2.5c0-1.3807-1.1193-2.5-2.5-2.5h-4.0572c-1.3807 0-2.5 1.1193-2.5 2.5s1.1193 2.5 2.5 2.5h4.0572c1.3807 0 2.5-1.1193 2.5-2.5zm-38.5 18.5c-1.3807 0-2.5 1.1193-2.5 2.5s1.1193 2.5 2.5 2.5h4c1.3807 0 2.5-1.1193 2.5-2.5s-1.1193-2.5-2.5-2.5h-4zm17.499 2.5c0-1.3807 1.1193-2.5 2.5-2.5h4c1.3807 0 2.5 1.1193 2.5 2.5s-1.1193 2.5-2.5 2.5h-4c-1.3807 0-2.5-1.1193-2.5-2.5zm-28.499-16.5c-1.3807 0-2.5 1.1193-2.5 2.5 0 1.3807 1.1193 2.5 2.5 2.5h8.7906c1.3807 0 2.5-1.1193 2.5-2.5 0-1.3807-1.1193-2.5-2.5-2.5h-8.7906zm33.5 2.5c0 1.3807-1.1193 2.5-2.5 2.5h-15c-1.3807 0-2.5-1.1193-2.5-2.5 0-1.3807 1.1193-2.5 2.5-2.5h15c1.3807 0 2.5 1.1193 2.5 2.5zm13.5-2.5c1.3807 0 2.5 1.1193 2.5 2.5 0 1.3807-1.1193 2.5-2.5 2.5h-8.7906c-1.3807 0-2.5-1.1193-2.5-2.5 0-1.3807 1.1193-2.5 2.5-2.5h8.7906zm-45.5 9.5c0-1.3807 1.1193-2.5 2.5-2.5h15c1.3807 0 2.5 1.1193 2.5 2.5s-1.1193 2.5-2.5 2.5h-15c-1.3807 0-2.5-1.1193-2.5-2.5zm26.5-2.5c-1.3807 0-2.5 1.1193-2.5 2.5s1.1193 2.5 2.5 2.5h15c1.3807 0 2.5-1.1193 2.5-2.5s-1.1193-2.5-2.5-2.5h-15z" clip-rule="evenodd" fill="#EDEAF4" fill-rule="evenodd"/>
</svg>
